Assets/Settings/HDRPDefaultResources/Presetpro - HDR Color.3dl
#Created by: Adobe Photoshop Export Color Lookup Plugin
#Copyright: (C) Copyright 2018 https://www.presetpro.com and Tim Martin
#Description: Presetpro - HDR Color
0 33 66 99 132 165 198 231 264 297 330 363 396 429 462 495 528 561 594 627 660 693 726 759 792 825 858 891 924 957 990 1023
0 16 0
0 15 83
0 16 229
0 1 396
0 0 623
0 0 856
0 0 1078
4 12 1278
12 0 1514
11 0 1725
0 0 1894
0 0 2090
16 0 2241
25 0 2410
7 7 2533
8 8 2672
0 0 2803
0 0 2908
7 9 3028
32 0 3171
6 0 3253
5 0 3379
16 0 3496
4 16 3597
4 0 3731
0 13 3852
0 0 3945
2 0 4073
0 0 4079
0 0 4079
0 0 4079
0 0 4079
17 131 0
0 129 82
30 114 216
15 98 412
1 66 639
0 41 842
0 65 1098
0 31 1295
0 1 1522
0 0 1726
5 0 1893
5 0 2078
20 0 2241
1 0 2404
0 0 2534
17 7 2688
0 0 2803
0 8 2926
7 0 3037
0 9 3165
6 0 3248
10 10 3388
0 11 3482
23 0 3620
25 4 3746
0 0 3842
3 0 3945
0 0 4073
0 0 4079
14 0 4079
0 0 4079
0 0 4079
32 262 1
0 262 99
45 247 245
0 258 398
16 211 610
27 181 825
0 166 1041
12 135 1285
3 128 1522
16 100 1722
0 89 1895
11 56 2069
0 33 2253
6 0 2409
0 0 2552
1 8 2665
14 0 2789
16 0 2933
1 0 3029
2 0 3150
16 0 3251
15 0 3384
0 0 3482
0 0 3593
0 1 3724
0 0 3839
0 0 3970
13 0 4070
1 0 4064
1 0 4079
1 0 4079
1 0 4079
0 457 3
0 414 66
0 426 212
29 380 395
14 389 636
0 343 826
13 314 1061
0 311 1292
3 279 1488
0 263 1700
7 213 1908
10 199 2086
5 143 2247
0 104 2397
0 72 2527
1 14 2675
0 1 2797
1 0 2919
16 0 3035
10 0 3165
1 14 3262
10 9 3365
0 0 3482
14 6 3617
4 11 3722
0 0 3842
0 0 3945
0 2 4073
13 13 4092
0 0 4079
0 0 4079
0 0 4079
28 655 42
0 641 45
29 625 195
4 595 367
16 590 623
4 558 825
3 535 1081
29 465 1293
2 472 1518
2 443 1698
3 425 1908
2 380 2058
0 346 2249
2 311 2417
0 278 2559
2 222 2673
10 151 2808
0 90 2936
13 28 3052
12 12 3147
0 2 3273
0 0 3373
11 0 3505
2 0 3601
4 0 3736
17 0 3881
11 11 3957
4 0 4069
0 0 4079
0 0 4079
0 0 4079
0 0 4079
0 885 3
0 879 27
0 865 106
1 837 327
0 824 598
3 818 837
0 744 1048
8 705 1259
3 684 1502
2 642 1698
3 626 1888
10 594 2090
3 571 2259
9 528 2427
18 479 2556
3 447 2680
0 406 2804
0 370 2913
0 300 3015
13 210 3139
0 99 3246
21 24 3387
11 5 3496
3 9 3602
0 16 3744
0 15 3855
0 0 3972
3 0 4071
0 0 4079
0 0 4079
13 0 4079
0 0 4079
16 1114 0
3 1095 0
0 1084 4
0 1070 276
2 1062 539
0 1036 800
16 982 1046
32 965 1271
12 908 1464
0 868 1706
2 859 1899
19 816 2068
23 770 2241
9 760 2410
4 701 2554
20 676 2676
11 640 2790
22 581 2898
0 558 3021
0 496 3139
0 438 3252
19 317 3370
5 182 3477
20 45 3610
4 9 3734
0 0 3842
34 0 3950
3 11 4073
3 0 4079
15 0 4079
3 0 4079
0 0 4079
12 1298 12
0 1294 0
0 1282 0
25 1274 215
0 1265 502
5 1259 736
25 1236 1022
0 1190 1258
0 1146 1506
2 1113 1682
0 1080 1871
23 1033 2055
0 1011 2224
17 953 2377
11 939 2550
17 926 2657
28 891 2779
4 832 2889
7 794 3012
0 742 3120
10 679 3239
9 605 3371
0 533 3482
0 426 3597
0 274 3740
12 63 3858
10 0 3958
12 4 4066
11 0 4079
11 0 4079
12 0 4079
0 0 4079
12 1498 0
12 1490 12
0 1487 0
1 1487 98
0 1472 456
37 1454 691
15 1426 952
0 1446 1214
0 1390 1438
4 1337 1678
0 1307 1865
14 1258 2064
4 1217 2221
0 1193 2377
0 1171 2524
0 1133 2653
4 1088 2782
4 1056 2869
25 1015 3011
0 983 3099
10 918 3220
4 870 3354
5 795 3471
0 716 3596
0 614 3699
0 491 3817
3 271 3949
12 29 4049
0 0 4079
0 0 4079
0 0 4079
0 0 4079
9 1698 0
5 1689 0
8 1677 0
3 1677 8
4 1668 378
17 1647 647
8 1644 908
0 1630 1152
0 1603 1413
5 1558 1622
11 1494 1846
1 1473 2025
0 1441 2180
9 1398 2334
11 1374 2505
11 1338 2635
0 1304 2739
32 1260 2871
0 1236 2967
21 1190 3107
0 1142 3215
0 1091 3322
0 1042 3453
11 973 3579
15 880 3667
8 780 3803
3 640 3915
0 467 4041
10 135 4095
0 0 4079
0 0 4079
16 0 4079
22 1872 11
5 1861 0
11 1850 1
4 1864 4
27 1847 264
0 1827 591
22 1816 886
11 1817 1134
8 1788 1382
5 1777 1580
0 1738 1824
6 1700 1999
10 1652 2183
7 1605 2326
0 1578 2488
8 1546 2614
0 1514 2747
11 1484 2862
15 1424 2960
16 1391 3082
0 1359 3211
5 1316 3320
0 1267 3432
7 1205 3548
0 1127 3667
0 1046 3804
0 940 3921
0 810 4035
0 616 4064
0 315 4078
6 5 4084
0 0 4079
16 2036 6
0 2041 5
0 2030 0
13 2033 3
7 2008 107
5 2007 533
16 1993 827
12 1988 1063
14 1984 1296
0 1951 1547
1 1940 1749
6 1918 1976
6 1874 2145
17 1831 2279
11 1786 2453
0 1745 2581
0 1695 2709
21 1663 2824
21 1629 2944
6 1599 3060
16 1555 3179
0 1527 3298
0 1474 3412
0 1413 3519
9 1355 3660
0 1270 3781
6 1188 3930
6 1070 4035
0 926 4095
6 739 4095
0 429 4080
6 6 4085
0 2229 0
0 2205 0
6 2203 0
5 2194 10
0 2189 28
0 2190 434
9 2174 758
6 2163 982
14 2143 1233
0 2128 1482
6 2120 1680
16 2112 1912
10 2086 2122
10 2048 2297
15 1982 2429
29 1944 2554
12 1901 2669
6 1869 2791
7 1849 2932
4 1800 3042
4 1767 3187
0 1734 3297
11 1690 3413
10 1631 3540
6 1579 3660
19 1489 3774
0 1417 3888
14 1302 4028
8 1196 4079
9 1042 4089
9 846 4095
0 498 4095
16 2346 25
25 2336 6
7 2365 34
16 2346 23
21 2332 30
31 2344 325
0 2321 654
0 2313 918
27 2303 1169
18 2289 1416
0 2301 1642
1 2274 1841
10 2260 2054
9 2218 2252
9 2192 2384
1 2145 2517
0 2105 2667
4 2055 2783
19 2025 2898
0 1987 3033
4 1951 3148
7 1930 3264
9 1882 3391
10 1827 3525
10 1773 3643
16 1710 3761
7 1638 3895
2 1536 4009
8 1442 4079
1 1312 4095
0 1124 4088
0 880 4095
0 2495 0
7 2510 15
24 2502 18
3 2477 1
7 2470 0
5 2488 95
16 2462 563
9 2461 878
13 2470 1118
3 2451 1344
0 2429 1580
18 2413 1802
2 2423 2006
9 2408 2203
14 2366 2350
7 2309 2497
8 2292 2629
0 2236 2765
2 2199 2879
7 2162 2987
3 2149 3137
10 2102 3253
4 2073 3373
9 2015 3509
16 1969 3631
7 1934 3760
0 1860 3890
13 1778 4002
18 1683 4092
8 1549 4095
14 1394 4095
7 1173 4095
8 2633 8
15 2634 0
1 2625 7
6 2623 0
0 2627 8
0 2616 26
21 2605 487
4 2581 776
0 2609 1054
8 2580 1297
0 2587 1512
8 2577 1751
8 2559 1924
8 2537 2131
33 2545 2333
16 2480 2464
8 2440 2603
16 2423 2757
0 2395 2876
23 2341 2984
17 2314 3096
6 2297 3239
7 2256 3362
8 2214 3476
16 2178 3618
8 2121 3742
13 2083 3893
20 2004 4008
16 1922 4078
17 1787 4095
24 1647 4095
17 1443 4087
8 2763 8
0 2755 8
0 2763 0
8 2763 0
8 2765 0
6 2752 8
10 2739 332
12 2748 731
0 2735 1016
0 2723 1257
5 2714 1489
0 2709 1698
0 2701 1918
0 2684 2075
8 2683 2270
0 2675 2439
8 2634 2618
15 2587 2742
8 2570 2850
0 2522 2997
0 2496 3120
8 2485 3229
5 2446 3353
4 2427 3501
8 2381 3651
8 2345 3751
16 2295 3868
0 2238 3987
8 2158 4090
8 2059 4095
0 1939 4095
0 1753 4095
7 2878 0
0 2885 0
7 2878 0
16 2883 0
7 2878 0
9 2862 3
14 2860 242
14 2851 664
0 2861 966
14 2854 1220
23 2834 1433
0 2837 1663
0 2827 1858
0 2813 2054
7 2813 2243
0 2790 2393
8 2781 2561
7 2764 2739
7 2709 2848
1 2691 2943
16 2667 3084
4 2644 3207
10 2624 3331
14 2587 3474
7 2549 3613
4 2516 3757
21 2483 3881
0 2427 3989
6 2370 4090
0 2281 4079
7 2161 4095
7 1980 4086
16 2990 7
19 2974 0
11 2988 18
9 2991 8
11 2981 4
12 2980 5
0 2983 82
6 2979 599
7 2980 910
11 2971 1186
19 2953 1415
9 2971 1614
7 2960 1846
3 2937 2016
2 2923 2197
0 2927 2395
0 2895 2528
7 2880 2700
9 2873 2832
10 2857 2962
9 2837 3071
14 2795 3207
5 2770 3308
7 2749 3466
0 2733 3583
4 2696 3711
19 2653 3851
19 2625 3988
9 2560 4092
8 2467 4089
0 2364 4083
0 2217 4095
30 3107 0
41 3122 6
87 3120 12
102 3115 0
134 3107 0
163 3107 0
171 3123 34
167 3092 533
164 3095 856
114 3074 1109
52 3076 1378
8 3081 1578
6 3072 1806
26 3059 2010
5 3067 2149
0 3051 2334
8 3036 2481
9 3022 2658
19 3008 2796
0 3020 2914
0 2974 3057
10 2956 3181
0 2945 3296
0 2916 3446
0 2895 3582
0 2863 3703
0 2844 3823
0 2805 3962
1 2744 4077
0 2654 4095
6 2554 4095
0 2426 4089
462 3243 22
512 3243 17
526 3234 13
550 3234 0
582 3228 14
571 3251 16
583 3237 34
584 3225 500
576 3243 831
544 3221 1103
469 3227 1333
404 3216 1578
238 3215 1773
93 3210 1968
23 3208 2151
11 3197 2341
6 3203 2508
6 3195 2657
6 3168 2800
15 3157 2955
0 3163 3088
0 3130 3202
10 3128 3337
52 3070 3445
24 3047 3570
26 3048 3702
3 3006 3836
6 2961 3949
6 2925 4080
15 2864 4095
10 2783 4095
0 2653 4095
750 3384 11
799 3373 5
773 3385 0
802 3362 14
826 3355 2
801 3375 5
791 3376 0
790 3350 383
759 3372 762
729 3362 1067
676 3356 1284
605 3341 1495
528 3345 1717
413 3340 1911
325 3327 2097
179 3302 2245
42 3322 2407
0 3309 2596
20 3291 2779
10 3293 2923
27 3272 3045
5 3271 3201
38 3255 3304
14 3237 3432
19 3206 3578
16 3189 3692
13 3154 3814
8 3123 3917
7 3087 4029
17 3028 4095
16 2947 4095
5 2822 4095
966 3482 0
993 3486 0
987 3483 0
989 3477 0
968 3484 0
991 3489 0
975 3459 11
965 3479 149
931 3475 656
917 3471 969
849 3471 1238
755 3471 1456
677 3449 1651
546 3480 1846
431 3462 2033
300 3442 2200
96 3439 2360
12 3431 2529
9 3431 2715
16 3407 2861
16 3392 2978
17 3369 3140
0 3386 3278
15 3386 3400
20 3357 3549
9 3361 3683
12 3328 3798
14 3270 3915
35 3251 4016
27 3191 4095
0 3126 4095
0 3012 4095
1076 3597 0
1113 3596 0
1113 3598 4
1094 3590 4
1094 3599 0
1128 3590 4
1080 3596 8
1059 3605 0
1031 3585 429
987 3597 838
930 3588 1104
852 3579 1334
749 3581 1539
606 3574 1742
435 3592 1971
211 3576 2139
49 3565 2310
13 3565 2498
24 3542 2668
6 3530 2800
25 3516 2941
16 3506 3101
16 3501 3229
4 3528 3400
28 3497 3523
16 3499 3666
14 3468 3795
0 3440 3900
0 3407 4035
0 3352 4094
7 3272 4095
12 3175 4095
1286 3724 0
1335 3739 0
1341 3748 0
1331 3731 16
1310 3747 10
1300 3749 12
1273 3763 9
1242 3751 12
1226 3747 133
1181 3752 667
1115 3738 1005
1045 3740 1272
941 3734 1487
828 3740 1680
671 3752 1874
573 3752 2092
467 3740 2273
301 3754 2467
109 3721 2637
18 3727 2804
35 3718 2953
11 3700 3095
19 3692 3242
0 3671 3375
0 3695 3522
25 3670 3641
12 3663 3784
2 3633 3915
0 3597 4024
0 3534 4095
0 3484 4095
0 3358 4095
1443 3845 0
1442 3852 13
1465 3849 24
1396 3864 1
1402 3850 2
1378 3861 0
1378 3861 0
1340 3867 9
1311 3852 3
1265 3853 205
1184 3874 745
1141 3855 1068
1051 3845 1330
907 3864 1594
699 3870 1786
531 3861 1987
369 3855 2182
146 3873 2366
4 3864 2527
0 3848 2721
3 3836 2891
3 3807 3026
3 3801 3180
0 3820 3326
0 3788 3469
6 3800 3636
13 3783 3763
13 3780 3917
13 3747 3997
1 3685 4078
13 3616 4095
3 3488 4095
1524 3927 16
1534 3958 29
1547 3956 8
1498 3960 3
1509 3959 3
1470 3953 0
1467 3969 0
1416 3953 0
1383 3966 0
1362 3970 3
1266 3959 418
1201 3981 881
1081 3975 1179
924 3975 1421
719 3969 1657
375 3967 1835
144 3962 2038
27 3970 2267
24 3949 2470
0 3945 2664
9 3924 2806
0 3929 2969
19 3913 3127
0 3924 3262
0 3924 3426
0 3924 3587
3 3959 3753
0 3913 3905
0 3878 3983
0 3843 4080
3 3764 4095
19 3619 4082
1593 4043 14
1604 4041 14
1600 4044 14
1600 4041 14
1540 4045 12
1547 4045 14
1544 4048 2
1507 4046 0
1465 4045 0
1402 4070 0
1329 4055 106
1231 4059 681
1127 4051 1037
965 4061 1282
769 4063 1540
288 4044 1757
4 4061 1990
13 4062 2189
0 4045 2400
14 4055 2570
20 4027 2740
0 4022 2902
11 4036 3079
0 4041 3243
0 4023 3387
0 4038 3538
13 4025 3703
16 4071 3888
14 4025 3992
15 3960 4079
15 3881 4094
16 3766 4081
1792 4095 0
1770 4095 0
1765 4094 0
1765 4094 0
